X: 34925
T: Rockforest, The
R: reel
M: 4/4
K: Eminor
|:~B3A B2ed|~B3A B~E3|dBBA B2ed|BdAF EFGA|
~B3A B2ed|~B3A GED2|EDBD GABA|1 BdAF EFGA:|2 BdAF E3F||
|:G2dG eGdG|~G2BA GEDG|~G2dG eGdG|fgdB ~A3A|
FEBE dEBE|G2BA GEDG|~G2BD GABA|1 BdAF E3F:|2 BdAF E3A||
|:BDAD BDAD|BDAD G~E3|BDAD BDAD|BDAF E3A|
B2BA B~e3|dBBA GED2|EDBD GABA|1 BdAF E3A:|2 BdAF Efga||
|:b2ba ~g3e|dBAd e~a3|b2ba ~g3e|dBAF E3a|
b2ba ~g3e|dBAd e~a3|b2~g2 edBA|1 BdAF Efga:|2 BdAF E3A||

